src/topics/icons/kotlin.svg

<svg height="264" preserveAspectRatio="xMidYMid" viewBox="0 0 256 264" width="256" xmlns="http://www.w3.org/2000/svg"><g fill="#4971a9"><path d="m0 219.977836v.955614c0 23.41254 18.8733742 42.285914 42.2859143 42.285914s42.2859142-18.873374 42.2859142-42.285914v-46.586177z"/><path d="m255.673376 220.21674c-.716711-9.078332-4.539166-17.439954-10.98956-23.890347v-.238904l-75.971304-67.131875-73.8211719 39.657976 95.3224849 84.810732c7.167104 6.21149 16.245436 9.556139 25.801575 9.556139 1.194517 0 2.389034 0 3.344648-.238904 10.511753-.955614 20.067892-5.972586 26.757189-13.856401 7.167104-7.883815 10.272849-18.156664 9.556139-28.668416z"/><path d="m84.5718285 48.2062409v-4.539166-.9556138c0-23.4125401-19.1122776-42.28591429-42.2859142-42.28591429-23.4125401 0-42.2859143 18.87337419-42.2859143 42.28591429v51.842053z"/></g><path d="m0 112.710178 197.57317-107.74546526c5.733683-3.10574511 12.184077-4.53916593 18.634471-4.53916593 4.061359 0 8.122718.71671041 12.184077 1.91122776 20.784602 6.68929717 32.013065 28.90731993 25.323768 49.69192183-2.866842 8.6005249-8.361622 16.0065325-16.006533 21.0235054v.2389035l-2.389035 1.4334208-235.319918 127.0966459z" fill="#f58a1f"/></svg>

<?xml version="1.0" encoding="UTF-8" standalone="no"?>
<svg width="256px" height="264px" viewBox="0 0 256 264" version="1.1" xmlns="http://www.w3.org/2000/svg" xmlns:xlink="http://www.w3.org/1999/xlink" preserveAspectRatio="xMidYMid">
	<g>
		<path d="M0,219.977836 L0,220.93345 C0,244.34599 18.8733742,263.219364 42.2859143,263.219364 C65.6984544,263.219364 84.5718285,244.34599 84.5718285,220.93345 L84.5718285,174.347273 L0,219.977836 L0,219.977836 Z" fill="#4971A9"></path>
		<path d="M255.673376,220.21674 C254.956665,211.138408 251.13421,202.776786 244.683816,196.326393 L244.683816,196.087489 L168.712512,128.955614 L94.8913401,168.61359 L190.213825,253.424322 C197.380929,259.635812 206.459261,262.980461 216.0154,262.980461 L216.0154,262.980461 C217.209917,262.980461 218.404434,262.980461 219.360048,262.741557 C229.871801,261.785943 239.42794,256.768971 246.117237,248.885156 C253.284341,241.001341 256.390086,230.728492 255.673376,220.21674 L255.673376,220.21674 Z" fill="#4971A9"></path>
		<path d="M84.5718285,48.2062409 L84.5718285,43.6670749 L84.5718285,42.7114611 C84.5718285,19.298921 65.4595509,0.425546807 42.2859143,0.425546807 C18.8733742,0.425546807 3.55271368e-14,19.298921 3.55271368e-14,42.7114611 L3.55271368e-14,94.5535141 L84.5718285,48.2062409 L84.5718285,48.2062409 Z" fill="#4971A9"></path>
		<path d="M2.84217094e-14,112.710178 L197.57317,4.96471274 C203.306853,1.85896763 209.757247,0.425546807 216.207641,0.425546807 C220.269,0.425546807 224.330359,1.14225722 228.391718,2.33677457 C249.17632,9.02607174 260.404783,31.2440945 253.715486,52.0286964 C250.848644,60.6292213 245.353864,68.0352289 237.708953,73.0522018 L237.708953,73.2911053 L235.319918,74.7245261 L9.63221596e-14,201.821172 L9.63221596e-14,112.710178 L2.84217094e-14,112.710178 Z" fill="#F58A1F"></path>
	</g>
</svg>
